usr/share/icons/biglinux-icons-material-dark/16/actions/align-vertical-bottom-out.svg

<svg xmlns="http://www.w3.org/2000/svg" viewBox="0 0 16 16">
<defs id="defs3051">
<style id="current-color-scheme" type="text/css">
.ColorScheme-Text{color:#dedede}
</style>
</defs>
<path d="M2 2v7h5V2zm1 1h3v5H3zm6 1v5h5V4zm1 1h3v3h-3zm-8 5v1h12v-1zm7 2v2h5v-2z" class="ColorScheme-Text" style="fill:currentColor;fill-opacity:1;stroke:none"/>
</svg>

<svg xmlns="http://www.w3.org/2000/svg" viewBox="0 0 16 16">
  <defs id="defs3051">
    <style type="text/css" id="current-color-scheme">
      .ColorScheme-Text {
        color:#dedede;
      }
      </style>
  </defs>
 <path style="fill:currentColor;fill-opacity:1;stroke:none" 
       d="M 2 2 L 2 9 L 7 9 L 7 2 L 2 2 z M 3 3 L 6 3 L 6 8 L 3 8 L 3 3 z M 9 4 L 9 9 L 14 9 L 14 4 L 9 4 z M 10 5 L 13 5 L 13 8 L 10 8 L 10 5 z M 2 10 L 2 11 L 14 11 L 14 10 L 2 10 z M 9 12 L 9 14 L 14 14 L 14 12 L 9 12 z "
     class="ColorScheme-Text"
     />
</svg>
